!!!OTL: Albas Vertreibung
!!!ARE: Europa, Mitteleuropa, Deutschland
!!!SCT: A0309B
!!!YEM: Copyright 1995, estate of Helmut Schaffrath.
**kern
*ICvox
*Ivox
*M6/8
*k[b-]
*F:
{8f
=1
4f
8f
4a
8a
=2
4cc
8cc
4a}
{8a
=3
4cc
8cc
4a
8b-
=4
4.cc
4cc}
{8f
=5
4f
8f
4a
8a
=6
4cc
8cc
4a}
{8a
=7
4cc
8cc
4a
8b-
=8
4.cc
4cc}
{8cc
=9
4cc
8cc
4cc
8b-
=10
4a
8a
4g}
{8g
=11
4a
8f
4e
8e
=12
4d
8e
4f
8g
=13
4.a
4.g
=14
4.f
4r}
==
!!!AGN: Romanze, Ballade, Lied
!! Willems 1848 No. 36.
!!!ONB: ESAC (Essen Associative Code) Database: ALTDEU
!!!AMT: compound duple
!!!AIN: vox
!!!EED: Helmut Schaffrath
!!!EEV: 1.0
*-
